Catalina-dark/actions/16/zoom-fit-selection.svg

<?xml version="1.0" encoding="UTF-8" standalone="no"?>
<svg
   xmlns:dc="http://purl.org/dc/elements/1.1/"
   xmlns:cc="http://creativecommons.org/ns#"
   xmlns:rdf="http://www.w3.org/1999/02/22-rdf-syntax-ns#"
   xmlns:svg="http://www.w3.org/2000/svg"
   xmlns="http://www.w3.org/2000/svg"
   xmlns:sodipodi="http://sodipodi.sourceforge.net/DTD/sodipodi-0.dtd"
   xmlns:inkscape="http://www.inkscape.org/namespaces/inkscape"
   width="16"
   height="16"
   viewBox="0 0 16 16"
   version="1.1"
   id="svg7"
   sodipodi:docname="gtk-zoom-fit.svg"
   inkscape:version="0.92.4 5da689c313, 2019-01-14">
  <metadata
     id="metadata11">
    <rdf:RDF>
      <cc:Work
         rdf:about="">
        <dc:format>image/svg+xml</dc:format>
        <dc:type
           rdf:resource="http://purl.org/dc/dcmitype/StillImage" />
      </cc:Work>
    </rdf:RDF>
  </metadata>
  <sodipodi:namedview
     pagecolor="#ffffff"
     bordercolor="#666666"
     borderopacity="1"
     objecttolerance="10"
     gridtolerance="10"
     guidetolerance="10"
     inkscape:pageopacity="0"
     inkscape:pageshadow="2"
     inkscape:window-width="640"
     inkscape:window-height="480"
     id="namedview9"
     showgrid="false"
     inkscape:zoom="14.75"
     inkscape:cx="6.8135593"
     inkscape:cy="8"
     inkscape:window-x="0"
     inkscape:window-y="26"
     inkscape:window-maximized="0"
     inkscape:current-layer="svg7" />
  <defs
     id="defs3">
    <style
       id="current-color-scheme"
       type="text/css">
   .ColorScheme-Text { color:#5c616c; } .ColorScheme-Highlight { color:#5294e2; }
  </style>
  </defs>
  <path
     style="fill:#f1f6f8;fill-opacity:0.8509804"
     class="ColorScheme-Text"
     d="M 3.1894531 2.0039062 C 2.5267531 2.0039062 2.0019531 2.5527963 2.0019531 3.2226562 L 2.0019531 7.0039062 L 4.0019531 7.0039062 L 4.0019531 4.0039062 L 7.0019531 4.0039062 L 7.0019531 2.0039062 L 3.1894531 2.0039062 z M 9.0019531 2.0039062 L 9.0019531 4.0039062 L 12.001953 4.0039062 L 12.001953 7.0039062 L 14.001953 7.0039062 L 14.001953 3.2226562 C 14.001953 2.5528964 13.477153 2.0039062 12.814453 2.0039062 L 9.0019531 2.0039062 z M 5.9902344 6 L 5.9902344 10 L 9.9902344 10 L 9.9902344 6 L 5.9902344 6 z M 2.0019531 9.0039062 L 2.0019531 12.785156 C 2.0019531 13.454916 2.5267531 14.003906 3.1894531 14.003906 L 7.0019531 14.003906 L 7.0019531 12.003906 L 4.0019531 12.003906 L 4.0019531 9.0039062 L 2.0019531 9.0039062 z M 12.001953 9.0039062 L 12.001953 12.003906 L 9.0019531 12.003906 L 9.0019531 14.003906 L 12.814453 14.003906 C 13.477153 14.003906 14.001953 13.455016 14.001953 12.785156 L 14.001953 9.0039062 L 12.001953 9.0039062 z"
     id="path5" />
</svg>

<svg width="16" height="16" version="1.1" viewBox="0 0 16 16" xmlns="http://www.w3.org/2000/svg">
<defs>
<style id="current-color-scheme" type="text/css">.ColorScheme-Text { color:#5c616c; } .ColorScheme-Highlight { color:#5294e2; }</style>
</defs>
<path class="ColorScheme-Text" d="m3.1895 2.0039c-0.6627 0-1.1875 0.54889-1.1875 1.2188v3.7812h2v-3h3v-2h-3.8125zm5.8125 0v2h3v3h2v-3.7812c0-0.66976-0.5248-1.2188-1.1875-1.2188h-3.8125zm-3.0117 3.9961v4h4v-4h-4zm-3.9883 3.0039v3.7812c0 0.66976 0.5248 1.2188 1.1875 1.2188h3.8125v-2h-3v-3h-2zm10 0v3h-3v2h3.8125c0.6627 0 1.1875-0.54889 1.1875-1.2188v-3.7812h-2z" fill="#dedede" fill-opacity=".85098"/>
</svg>
